source/img/button-pagination-prev.svg

<svg width="35" height="35" viewBox="0 0 35 35" fill="none" xmlns="http://www.w3.org/2000/svg">
<path d="M9.82056 17.5L15.8206 21V14L9.82056 17.5Z" fill="#0E1823"/>
<path d="M25.8206 16.8264H15.1539V18.1736H25.8206V16.8264Z" fill="#0E1823"/>
<path d="M33.8206 3C33.8206 1.89543 32.9251 1 31.8206 1H3.00004C1.89547 1 1.00004 1.89543 1.00004 3V31.8205C1.00004 32.9251 1.89547 33.8205 3.00004 33.8205H31.8206C32.9251 33.8205 33.8206 32.9251 33.8206 31.8205V3Z" stroke="url(#paint0_linear)" stroke-width="2"/>
<defs>
<linearGradient id="paint0_linear" x1="4.14428e-05" y1="34.8205" x2="34.8206" y2="34.8205" gradientUnits="userSpaceOnUse">
<stop stop-color="#FF6E2F"/>
<stop offset="1" stop-color="#F84343"/>
</linearGradient>
</defs>
</svg>

<svg width="35" height="35" fill="none" xmlns="http://www.w3.org/2000/svg"><path d="M9.82 17.5l6 3.5v-7l-6 3.5z" fill="#0E1823"/><path d="M25.82 16.826H15.155v1.348H25.82v-1.348z" fill="#0E1823"/><path d="M33.82 3a2 2 0 00-2-2H3a2 2 0 00-2 2v28.82a2 2 0 002 2h28.82a2 2 0 002-2V3z" stroke="url(#paint0_linear)" stroke-width="2"/><defs><linearGradient id="paint0_linear" x1="0" y1="34.821" x2="34.821" y2="34.821" gradientUnits="userSpaceOnUse"><stop stop-color="#FF6E2F"/><stop offset="1" stop-color="#F84343"/></linearGradient></defs></svg>
